;FLAVOR:Marlin
;TIME:31175
;Filament used: 34.4777m
;Layer height: 0.2
;Generated with Cura_SteamEngine master
M140 S60
M105
M190 S60
M104 S200
M105
M109 S200
M82 ;absolute extrusion mode
; start_gcode
M117 Start Clean        ; Indicate nozzle clean in progress on LCD
;
M104 S[extruder0_temperature] 
M109 S[extruder0_temperature] 
M109 R[extruder0_temperature] 
;
M107                    ; Turn layer fan off
G21                     ; Set to metric [change to G20 if you want Imperial]
G90                     ; Force coordinates to be absolute relative to the origin
G28                     ; Home X/Y/Z axis
;
G1 X3 Y1 Z15 F9000      ; Move safe Z height to shear strings
G0 X1 Y1 Z0.2 F9000     ; Move in 1mm from edge and up [z] 0.2mm
G92 E0                  ; Set extruder to [0] zero
G1 X100 E12 F500        ; Extrude 30mm filiment along X axis 100mm long to prime and clean the nozzle
G92 E0                  ; Reset extruder to [0] zero end of cleaning run
G1 E-1 F500             ; Retract filiment by 1 mm to reduce string effect
G1 X180 F4000           ; quick wipe away from the filament line / purge
M117 End Clean          ; Indicate nozzle clean in progress on LCD
;
M117 Printing...
; Begin printing with sliced GCode after here
;
G92 E0
G1 F2400 E-6.8
;LAYER_COUNT:250
;LAYER:0
M107
G0 F3600 X53.901 Y90.384 Z0.3
;TYPE:SKIRT
G1 F2400 E0
G1 F1800 X54.728 Y89.906 E0.04766
G1 X55.591 Y89.5 E0.09524
G1 X56.486 Y89.167 E0.14288
G1 X57.406 Y88.91 E0.19054
G1 X58.344 Y88.731 E0.23818
G1 X59.293 Y88.631 E0.28579
G1 X60.009 Y88.609 E0.32152
G1 X239.991 Y88.61 E9.30086
G1 X240.945 Y88.65 E9.3485
G1 X241.892 Y88.77 E9.39612
G1 X242.826 Y88.968 E9.44376
G1 X243.74 Y89.244 E9.49139
G1 X244.628 Y89.596 E9.53905
G1 X245.483 Y90.02 E9.58666
G1 X246.3 Y90.515 E9.63432
G1 X247.072 Y91.076 E9.68193
G1 X247.795 Y91.7 E9.72957
G1 X248.463 Y92.382 E9.7772
G1 X249.072 Y93.118 E9.82486
G1 X249.616 Y93.902 E9.87247
G1 X250.094 Y94.729 E9.92012
G1 X250.5 Y95.593 E9.96775
G1 X250.833 Y96.487 E10.01535
G1 X251.09 Y97.407 E10.063
G1 X251.269 Y98.345 E10.11064
G1 X251.369 Y99.294 E10.15825
G1 X251.391 Y100.01 E10.19399
G1 X251.391 Y199.991 E15.18206
G1 X251.351 Y200.945 E15.2297
G1 X251.231 Y201.892 E15.27732
G1 X251.033 Y202.826 E15.32496
G1 X250.757 Y203.74 E15.37259
G1 X250.405 Y204.628 E15.42025
G1 X249.981 Y205.483 E15.46786
G1 X249.486 Y206.3 E15.51552
G1 X248.925 Y207.072 E15.56313
G1 X248.301 Y207.795 E15.61078
G1 X247.619 Y208.463 E15.6584
G1 X246.883 Y209.072 E15.70606
G1 X246.099 Y209.616 E15.75367
G1 X245.272 Y210.094 E15.80133
G1 X244.409 Y210.5 E15.84891
G1 X243.514 Y210.833 E15.89655
G1 X242.594 Y211.09 E15.94421
G1 X241.656 Y211.269 E15.99185
G1 X240.707 Y211.369 E16.03945
G1 X239.991 Y211.391 E16.07519
G1 X60.009 Y211.391 E25.05453
G1 X59.055 Y211.351 E25.10217
G1 X58.108 Y211.231 E25.14979
G1 X57.174 Y211.033 E25.19743
G1 X56.26 Y210.757 E25.24506
G1 X55.372 Y210.405 E25.29272
G1 X54.517 Y209.981 E25.34033
G1 X53.7 Y209.486 E25.38799
G1 X52.928 Y208.925 E25.4356
G1 X52.205 Y208.301 E25.48324
G1 X51.537 Y207.619 E25.53087
G1 X50.928 Y206.883 E25.57853
G1 X50.384 Y206.099 E25.62614
G1 X49.906 Y205.272 E25.67379
G1 X49.5 Y204.409 E25.72138
G1 X49.167 Y203.514 E25.76902
G1 X48.91 Y202.594 E25.81667
G1 X48.731 Y201.656 E25.86432
G1 X48.631 Y200.707 E25.91192
G1 X48.609 Y199.991 E25.94766
G1 X48.609 Y100.009 E30.93578
G1 X48.649 Y99.055 E30.98342
G1 X48.769 Y98.108 E31.03105
G1 X48.967 Y97.174 E31.07868
G1 X49.243 Y96.26 E31.12631
G1 X49.595 Y95.372 E31.17397
G1 X50.019 Y94.517 E31.22158
G1 X50.514 Y93.7 E31.26924
G1 X51.075 Y92.928 E31.31685
G1 X51.699 Y92.205 E31.3645
G1 X52.381 Y91.537 E31.41212
G1 X53.117 Y90.928 E31.45978
G1 X53.901 Y90.384 E31.50739
G0 F3600 X54.284 Y90.616
G1 F1800 X55.105 Y90.163 E31.55417
G1 X55.962 Y89.781 E31.60098
G1 X56.848 Y89.473 E31.64778
G1 X57.757 Y89.242 E31.69457
G1 X58.682 Y89.089 E31.74135
G1 X60.009 Y89.009 E31.80767
G1 X239.991 Y89.01 E40.78701
G1 X240.928 Y89.05 E40.8338
G1 X241.858 Y89.17 E40.88058
G1 X242.775 Y89.368 E40.92739
G1 X243.671 Y89.644 E40.97416
G1 X244.541 Y89.995 E41.02097
G1 X245.378 Y90.419 E41.06778
G1 X246.175 Y90.913 E41.11456
G1 X246.927 Y91.473 E41.16133
G1 X247.629 Y92.095 E41.20813
G1 X248.276 Y92.774 E41.25492
G1 X248.862 Y93.506 E41.3017
G1 X249.384 Y94.285 E41.34848
G1 X249.837 Y95.106 E41.39526
G1 X250.219 Y95.963 E41.44207
G1 X250.527 Y96.849 E41.48887
G1 X250.758 Y97.758 E41.53566
G1 X250.911 Y98.683 E41.58244
G1 X250.991 Y100.01 E41.64876
G1 X250.991 Y199.991 E46.63684
G1 X250.951 Y200.928 E46.68363
G1 X250.831 Y201.858 E46.73041
G1 X250.633 Y202.775 E46.77721
G1 X250.357 Y203.671 E46.82399
G1 X250.006 Y204.541 E46.87079
G1 X249.582 Y205.377 E46.91756
G1 X249.088 Y206.175 E46.96438
G1 X248.528 Y206.927 E47.01116
G1 X247.907 Y207.629 E47.05792
G1 X247.227 Y208.276 E47.10474
G1 X246.495 Y208.862 E47.15152
G1 X245.716 Y209.384 E47.19831
G1 X244.895 Y209.837 E47.24509
G1 X244.038 Y210.219 E47.2919
G1 X243.152 Y210.527 E47.3387
G1 X242.243 Y210.758 E47.38549
G1 X241.318 Y210.911 E47.43226
G1 X239.991 Y210.991 E47.49859
G1 X60.009 Y210.991 E56.47793
G1 X59.072 Y210.951 E56.52472
G1 X58.142 Y210.831 E56.5715
G1 X57.225 Y210.633 E56.6183
G1 X56.329 Y210.357 E56.66508
G1 X55.459 Y210.006 E56.71188
G1 X54.623 Y209.582 E56.75865
G1 X53.825 Y209.088 E56.80547
G1 X53.073 Y208.528 E56.85225
G1 X52.371 Y207.907 E56.89901
G1 X51.724 Y207.227 E56.94584
G1 X51.138 Y206.495 E56.99262
G1 X50.616 Y205.716 E57.0394
G1 X50.163 Y204.895 E57.08618
G1 X49.781 Y204.038 E57.13299
G1 X49.473 Y203.152 E57.17979
G1 X49.242 Y202.243 E57.22658
G1 X49.089 Y201.318 E57.27336
G1 X49.009 Y199.991 E57.33968
G1 X49.009 Y100.009 E62.3278
G1 X49.049 Y99.072 E62.37459
G1 X49.169 Y98.142 E62.42138
G1 X49.367 Y97.225 E62.46818
G1 X49.643 Y96.329 E62.51495
G1 X49.994 Y95.459 E62.56176
G1 X50.418 Y94.623 E62.60852
G1 X50.912 Y93.825 E62.65535
G1 X51.472 Y93.073 E62.70212
G1 X52.093 Y92.371 E62.74888
G1 X52.773 Y91.724 E62.79571
G1 X53.505 Y91.138 E62.84249
G1 X54.284 Y90.616 E62.88928
G0 F3600 X54.667 Y90.854
G1 F1800 X55.481 Y90.425 E62.93518
G1 X56.33 Y90.068 E62.98113
G1 X57.206 Y89.786 E63.02704
G1 X58.104 Y89.582 E63.07299
G1 X59.016 Y89.456 E63.11892
G1 X60.009 Y89.409 E63.16851
G1 X239.991 Y89.41 E72.14785
G1 X240.911 Y89.45 E72.19379
G1 X241.824 Y89.57 E72.23974
G1 X242.723 Y89.768 E72.28566
G1 X243.601 Y90.044 E72.33158
G1 X244.452 Y90.395 E72.37751
G1 X245.27 Y90.818 E72.42345
G1 X246.048 Y91.311 E72.4694
G1 X246.78 Y91.869 E72.51532
G1 X247.46 Y92.489 E72.56123
G1 X248.085 Y93.165 E72.60716
G1 X248.648 Y93.893 E72.65308
G1 X249.146 Y94.668 E72.69904
G1 X249.575 Y95.482 E72.74494
G1 X249.932 Y96.331 E72.79089
G1 X250.214 Y97.207 E72.8368
G1 X250.418 Y98.105 E72.88275
G1 X250.544 Y99.017 E72.92868
G1 X250.591 Y100.01 E72.97827
G1 X250.591 Y199.991 E77.96635
G1 X250.551 Y200.911 E78.01229
G1 X250.431 Y201.824 E78.05823
G1 X250.233 Y202.723 E78.10416
G1 X249.957 Y203.601 E78.15007
G1 X249.606 Y204.452 E78.196
G1 X249.183 Y205.27 E78.24194
G1 X248.69 Y206.047 E78.28785
G1 X248.132 Y206.779 E78.33377
G1 X247.512 Y207.46 E78.37972
G1 X246.836 Y208.085 E78.42565
G1 X246.108 Y208.648 E78.47157
G1 X245.333 Y209.146 E78.51752
G1 X244.519 Y209.575 E78.56343
G1 X243.67 Y209.932 E78.60938
G1 X242.794 Y210.214 E78.65529
G1 X241.896 Y210.418 E78.70123
G1 X240.984 Y210.544 E78.74717
G1 X239.991 Y210.591 E78.79676
G1 X60.009 Y210.591 E87.7761
G1 X59.089 Y210.551 E87.82204
G1 X58.176 Y210.431 E87.86799
G1 X57.277 Y210.233 E87.91391
G1 X56.399 Y209.957 E87.95983
G1 X55.548 Y209.606 E88.00575
G1 X54.73 Y209.183 E88.0517
G1 X53.953 Y208.69 E88.09761
G1 X53.221 Y208.132 E88.14353
G1 X52.54 Y207.512 E88.18947
G1 X51.915 Y206.836 E88.23541
G1 X51.352 Y206.108 E88.28132
G1 X50.854 Y205.333 E88.32728
G1 X50.425 Y204.519 E88.37318
G1 X50.068 Y203.67 E88.41913
G1 X49.786 Y202.794 E88.46505
G1 X49.582 Y201.896 E88.51099
G1 X49.456 Y200.984 E88.55692
G1 X49.409 Y199.991 E88.60652
G1 X49.409 Y100.009 E93.59464
G1 X49.449 Y99.089 E93.64058
G1 X49.569 Y98.176 E93.68652
G1 X49.767 Y97.277 E93.73245
G1 X50.043 Y96.399 E93.77837
G1 X50.394 Y95.548 E93.82429
G1 X50.817 Y94.73 E93.87024
G1 X51.31 Y93.953 E93.91615
G1 X51.868 Y93.221 E93.96207
G1 X52.488 Y92.54 E94.00801
G1 X53.164 Y91.915 E94.05394
G1 X53.892 Y91.352 E94.09986
G1 X54.667 Y90.854 E94.14582
G0 F3600 X54.279 Y91.571
G1 F1800 X55.048 Y91.097 E94.19089
G1 X55.855 Y90.693 E94.23591
G1 X56.696 Y90.362 E94.281
G1 X57.562 Y90.107 E94.32604
G1 X58.447 Y89.929 E94.37108
G1 X59.345 Y89.831 E94.41615
G1 X60.009 Y89.809 E94.44929
G1 X239.991 Y89.81 E103.42863
G1 X240.893 Y89.85 E103.47367
G1 X241.788 Y89.97 E103.51873
G1 X242.669 Y90.168 E103.56377
G1 X243.53 Y90.443 E103.60887
G1 X244.362 Y90.794 E103.65392
G1 X245.16 Y91.217 E103.69898
G1 X245.917 Y91.708 E103.74399
G1 X246.629 Y92.265 E103.78909
G1 X247.288 Y92.883 E103.83417
G1 X247.889 Y93.556 E103.87918
G1 X248.429 Y94.28 E103.92424
G1 X248.903 Y95.049 E103.96931
G1 X249.307 Y95.856 E104.01434
G1 X249.638 Y96.697 E104.05943
G1 X249.893 Y97.563 E104.10447
G1 X250.071 Y98.449 E104.14955
G1 X250.169 Y99.346 E104.19457
G1 X250.191 Y100.01 E104.22772
G1 X250.191 Y199.991 E109.21579
G1 X250.151 Y200.893 E109.26083
G1 X250.031 Y201.788 E109.30588
G1 X249.833 Y202.669 E109.35093
G1 X249.558 Y203.529 E109.39598
G1 X249.207 Y204.362 E109.44108
G1 X248.784 Y205.16 E109.48614
G1 X248.293 Y205.917 E109.53115
G1 X247.736 Y206.628 E109.57621
G1 X247.118 Y207.288 E109.62132
G1 X246.445 Y207.889 E109.66634
G1 X245.721 Y208.429 E109.7114
G1 X244.952 Y208.903 E109.75647
G1 X244.145 Y209.307 E109.80149
G1 X243.304 Y209.638 E109.84658
G1 X242.438 Y209.893 E109.89162
G1 X241.553 Y210.071 E109.93666
G1 X240.655 Y210.169 E109.98173
G1 X239.991 Y210.191 E110.01487
G1 X60.009 Y210.191 E118.99421
G1 X59.107 Y210.151 E119.03925
G1 X58.212 Y210.031 E119.08431
G1 X57.331 Y209.833 E119.12936
G1 X56.471 Y209.558 E119.1744
G1 X55.638 Y209.207 E119.2195
G1 X54.84 Y208.784 E119.26456
G1 X54.083 Y208.293 E119.30957
G1 X53.372 Y207.736 E119.35463
G1 X52.712 Y207.118 E119.39974
G1 X52.111 Y206.445 E119.44476
G1 X51.571 Y205.721 E119.48982
G1 X51.097 Y204.952 E119.53489
G1 X50.693 Y204.145 E119.57991
G1 X50.362 Y203.304 E119.625
G1 X50.107 Y202.438 E119.67004
G1 X49.929 Y201.553 E119.71508
G1 X49.831 Y200.655 E119.76015
G1 X49.809 Y199.991 E119.79329
G1 X49.809 Y100.009 E124.78142
G1 X49.849 Y99.107 E124.82646
G1 X49.969 Y98.212 E124.87151
G1 X50.167 Y97.331 E124.91656
G1 X50.442 Y96.471 E124.96161
G1 X50.793 Y95.638 E125.0067
G1 X51.216 Y94.84 E125.05176
G1 X51.707 Y94.083 E125.09678
G1 X52.264 Y93.372 E125.14184
G1 X52.882 Y92.712 E125.18695
G1 X53.555 Y92.111 E125.23197
G1 X54.279 Y91.571 E125.27703
G1 F2400 E118.47703
G1 F300 Z1.3
;MESH:Toothbrush_Holder.stl
G0 F3600 X61.9 Y124.4 Z1.3
;TYPE:WALL-INNER
G1 F300 Z0.3
G1 F2400 E125.27703
G1 F1800 X61.9 Y175.6 E127.8314
G1 X120.6 Y175.6 E130.75996
G1 X120.6 Y124.4 E133.31434
G1 X61.9 Y124.4 E136.24289
G0 F3600 X61.83 Y124.33
G0 X121.83 Y124.33
G0 X121.9 Y124.4
G1 F1800 X121.9 Y175.6 E138.79727
G1 X180.6 Y175.6 E141.72583
G1 X180.6 Y124.4 E144.2802
G1 X121.9 Y124.4 E147.20876
G0 F3600 X121.83 Y124.33
G0 X181.83 Y124.33
G0 X181.9 Y124.4
G1 F1800 X181.9 Y175.6 E149.76314
G1 X238.1 Y175.6 E152.56697
G1 X238.1 Y124.4 E155.12135
G1 X181.9 Y124.4 E157.92517
G0 F3600 X181.83 Y124.33
G0 X181.872 Y175.628
G0 X239.33 Y199.33
G0 X239.4 Y199.4
G1 F1800 X60.6 Y199.4 E166.84554
G1 X60.6 Y100.6 E171.77469
G1 X239.4 Y100.6 E180.69506
G1 X239.4 Y199.4 E185.62422
G0 F3600 X239.8 Y199.8
;TYPE:WALL-OUTER
G1 F1800 X60.2 Y199.8 E194.5845
G1 X60.2 Y100.2 E199.55356
G1 X239.8 Y100.2 E208.51384
G1 X239.8 Y199.8 E213.4829
G0 F3600 X239.6 Y199.8
G0 X239.33 Y199.33
G0 X181.872 Y175.628
G0 X181.872 Y124.372
G0 X182.3 Y124.3
G0 X182.3 Y124.8
G1 F1800 X182.3 Y175.2 E215.99737
G1 X237.7 Y175.2 E218.76129
G1 X237.7 Y124.8 E221.27575
G1 X182.3 Y124.8 E224.03967
G0 F3600 X182.3 Y125
G0 X181.8 Y125
G0 X180.628 Y124.372
G0 X122.3 Y124.3
G0 X122.3 Y124.8
G1 F1800 X122.3 Y175.2 E226.55414
G1 X180.2 Y175.2 E229.44278
G1 X180.2 Y124.8 E231.95725
G1 X122.3 Y124.8 E234.84589
G0 F3600 X122.3 Y125
G0 X121.8 Y125
G0 X120.628 Y124.372
G0 X62.3 Y124.3
G0 X62.3 Y124.8
G1 F1800 X62.3 Y175.2 E237.36036
G1 X120.2 Y175.2 E240.249
G1 X120.2 Y124.8 E242.76346
G1 X62.3 Y124.8 E245.65211
G0 F3600 X62.3 Y125
G0 X61.8 Y125
G0 X61.51 Y124.01
;TYPE:SKIN
G1 F1800 X61.51 Y175.99 E248.2454
G1 X120.99 Y175.99 E251.21287
G1 X120.99 Y124.01 E253.80616
G1 X61.51 Y124.01 E256.77363
G0 F3600 X60.99 Y100.99
G1 F1800 X239.01 Y100.99 E265.65508
G1 X239.01 Y199.01 E270.54532
G1 X60.99 Y199.01 E279.42678
G1 X60.99 Y100.99 E284.31701
G0 F3600 X121.51 Y124.01
G1 F1800 X121.51 Y175.99 E286.91031
G1 X180.99 Y175.99 E289.87778
G1 X180.99 Y124.01 E292.47107
G1 X121.51 Y124.01 E295.43854
G0 F3600 X181.51 Y124.01
G1 F1800 X181.51 Y175.99 E298.03183
G1 X238.49 Y175.99 E300.87457
G1 X238.49 Y124.01 E303.46787
G1 X181.51 Y124.01 E306.31061
G0 F3600 X238.829 Y101.367
G1 F1800 X238.631 Y101.17 E306.32455
G0 F3600 X238.065 Y101.17
G1 F1800 X238.829 Y101.933 E306.37841
G0 F3600 X238.829 Y102.499
G1 F1800 X237.5 Y101.17 E306.47218
G0 F3600 X236.934 Y101.17
G1 F1800 X238.829 Y103.065 E306.60589
G0 F3600 X238.829 Y103.63
G1 F1800 X236.368 Y101.17 E306.77949
G0 F3600 X235.803 Y101.17
G1 F1800 X238.829 Y104.196 E306.99299
G0 F3600 X238.829 Y104.762
G1 F1800 X235.237 Y101.17 E307.24642
G0 F3600 X234.671 Y101.17
G1 F1800 X238.829 Y105.327 E307.53976
G0 F3600 X238.829 Y105.893
G1 F1800 X234.106 Y101.17 E307.87299
G0 F3600 X233.54 Y101.17
G1 F1800 X238.829 Y106.459 E308.24616
G0 F3600 X238.829 Y107.024
G1 F1800 X232.974 Y101.17 E308.65922
G0 F3600 X232.409 Y101.17
G1 F1800 X238.829 Y107.59 E309.11219
G0 F3600 X238.829 Y108.156
G1 F1800 X231.843 Y101.17 E309.60509
G0 F3600 X231.277 Y101.17
G1 F1800 X238.829 Y108.721 E310.13789
G0 F3600 X238.829 Y109.287
G1 F1800 X230.711 Y101.17 E310.71062
G0 F3600 X230.146 Y101.17
G1 F1800 X238.829 Y109.853 E311.32325
G0 F3600 X238.829 Y110.418
G1 F1800 X229.58 Y101.17 E311.97579
G0 F3600 X229.014 Y101.17
G1 F1800 X238.829 Y110.984 E312.66825
G0 F3600 X238.829 Y111.55
G1 F1800 X228.449 Y101.17 E313.40062
G0 F3600 X227.883 Y101.17
G1 F1800 X238.829 Y112.116 E314.17292
G0 F3600 X238.829 Y112.681
G1 F1800 X227.317 Y101.17 E314.98512
G0 F3600 X226.752 Y101.17
G1 F1800 X238.829 Y113.247 E315.83721
G0 F3600 X238.829 Y113.813
G1 F1800 X226.186 Y101.17 E316.72924
G0 F3600 X225.62 Y101.17
G1 F1800 X238.829 Y114.378 E317.66118
G0 F3600 X238.829 Y114.944
G1 F1800 X225.055 Y101.17 E318.63301
G0 F3600 X224.489 Y101.17
G1 F1800 X238.829 Y115.51 E319.64477
G0 F3600 X238.829 Y116.075
G1 F1800 X223.923 Y101.17 E320.69643
G0 F3600 X223.358 Y101.17
G1 F1800 X238.829 Y116.641 E321.788
G0 F3600 X238.829 Y117.207
G1 F1800 X222.792 Y101.17 E322.91949
G0 F3600 X222.226 Y101.17
G1 F1800 X238.829 Y117.772 E324.09089
G0 F3600 X238.829 Y118.338
G1 F1800 X221.661 Y101.17 E325.30218
G0 F3600 X221.095 Y101.17
G1 F1800 X238.829 Y118.904 E326.55341
G0 F3600 X238.829 Y119.469
G1 F1800 X220.529 Y101.17 E327.84454
G0 F3600 X219.963 Y101.17
G1 F1800 X238.829 Y120.035 E329.17561
G0 F3600 X238.829 Y120.601
G1 F1800 X219.398 Y101.17 E330.54657
G0 F3600 X218.832 Y101.17
G1 F1800 X238.829 Y121.166 E331.95743
G0 F3600 X238.829 Y121.732
G1 F1800 X218.266 Y101.17 E333.40822
G0 F3600 X217.701 Y101.17
G1 F1800 X238.829 Y122.298 E334.89892
G0 F3600 X238.829 Y122.864
G1 F1800 X217.135 Y101.17 E336.42955
G0 F3600 X216.569 Y101.17
G1 F1800 X238.829 Y123.429 E338.00008
G0 F3600 X238.664 Y123.829
G1 F1800 X216.004 Y101.17 E339.59883
G0 F3600 X215.438 Y101.17
G1 F1800 X238.098 Y123.829 E341.19758
G0 F3600 X237.532 Y123.829
G1 F1800 X214.872 Y101.17 E342.79633
G0 F3600 X214.307 Y101.17
G1 F1800 X236.967 Y123.829 E344.39508
G0 F3600 X236.401 Y123.829
G1 F1800 X213.741 Y101.17 E345.99383
G0 F3600 X213.175 Y101.17
G1 F1800 X235.835 Y123.829 E347.59258
G0 F3600 X235.269 Y123.829
G1 F1800 X212.61 Y101.17 E349.19129
G0 F3600 X212.044 Y101.17
G1 F1800 X234.704 Y123.829 E350.79004
G0 F3600 X234.138 Y123.829
